X:179
T:Sno
R:reel
C:Bruce Osborne - Jan. 2003
Z:abc by bosborne@kos.net
M:2/4
L:1/8
K:G
B/A/|GG/F/ G/A/B/c/|d/g/b/g/ dA/B/|c/A/F/A/ D/F/A/F/|G/F/G/A/ BB/A/|\
GG/F/ G/A/B/c/|d/g/b/g/ dA/B/|c/A/F/A/ D/F/A/F/|G/B/A/F/ G:|
|:F/G/|A/F/D/F/ A/F/D/F/|G/F/G/A/ BA/B/|c/A/F/A/ D/F/A/F/|G/D/B,/D/ GF/G/|\
A/F/D/F/ A/F/D/F/|G/F/G/A/ BA/B/|c/A/F/A/ D/F/A/F/|G/B/A/F/ G:|
